X: 36205
T: Scotty O'Neill
R: reel
M: 4/4
K: Dmajor
|:AG|F2 D2 A2 F2|dedc BABc|d2 A2 G2 F2|F2 E2- E2 AG|
F2 D2 A2 F2|dedc BABc|d2 A2 ABAG|F2 D2- D2:|
|:AG|F2 A2 f3 e|d2 c2 B3 c|d2 A2 G2 F2|F2 E2- E2 AG|
F2 A2 f3 e|d2 c2 BABc|d2 A2 ABAG|F2 D2- D2:|

